Src/Delivery/studio/bitmaps/src/icons/7/19.svg

<?xml version="1.0" encoding="UTF-8" standalone="no"?>
<svg
   xmlns:dc="http://purl.org/dc/elements/1.1/"
   xmlns:cc="http://creativecommons.org/ns#"
   xmlns:rdf="http://www.w3.org/1999/02/22-rdf-syntax-ns#"
   xmlns:svg="http://www.w3.org/2000/svg"
   xmlns="http://www.w3.org/2000/svg"
   xmlns:xlink="http://www.w3.org/1999/xlink"
   xmlns:sodipodi="http://sodipodi.sourceforge.net/DTD/sodipodi-0.dtd"
   xmlns:inkscape="http://www.inkscape.org/namespaces/inkscape"
   height="100"
   viewBox="0 0 100 100"
   width="100"
   version="1.1"
   id="svg36"
   sodipodi:docname="19.svg"
   inkscape:version="1.0.2-2 (e86c870879, 2021-01-15)">
  <metadata
     id="metadata42">
    <rdf:RDF>
      <cc:Work
         rdf:about="">
        <dc:format>image/svg+xml</dc:format>
        <dc:type
           rdf:resource="http://purl.org/dc/dcmitype/StillImage" />
        <dc:title></dc:title>
      </cc:Work>
    </rdf:RDF>
  </metadata>
  <defs
     id="defs40" />
  <sodipodi:namedview
     pagecolor="#ffffff"
     bordercolor="#666666"
     borderopacity="1"
     objecttolerance="10"
     gridtolerance="10"
     guidetolerance="10"
     inkscape:pageopacity="0"
     inkscape:pageshadow="2"
     inkscape:window-width="3840"
     inkscape:window-height="2080"
     id="namedview38"
     showgrid="false"
     showguides="true"
     inkscape:guide-bbox="true"
     inkscape:zoom="1.26"
     inkscape:cx="866.97189"
     inkscape:cy="374.86602"
     inkscape:window-x="2869"
     inkscape:window-y="-11"
     inkscape:window-maximized="1"
     inkscape:current-layer="svg36"
     inkscape:document-rotation="0" />
  <linearGradient
     id="a">
    <stop
       offset="0"
       stop-color="#c9c9c9"
       id="stop2" />
    <stop
       offset="1"
       stop-color="#e3f9fc"
       id="stop4" />
  </linearGradient>
  <linearGradient
     id="b"
     gradientTransform="matrix(.84335867 .40834093 -.39923406 .86259641 28.26115 -6.440423)"
     gradientUnits="userSpaceOnUse"
     x1="9.940678"
     x2="24.805084"
     xlink:href="#a"
     y1="77.542374"
     y2="48.728813" />
  <linearGradient
     id="c"
     gradientTransform="matrix(.84335867 .40834093 -.39923406 .86259641 28.26115 -18.440423)"
     gradientUnits="userSpaceOnUse"
     x1="9.940678"
     x2="24.805084"
     xlink:href="#a"
     y1="77.542374"
     y2="48.728813" />
  <linearGradient
     id="d"
     gradientTransform="matrix(.84335867 .40834093 -.39923406 .86259641 28.26115 -32.440423)"
     gradientUnits="userSpaceOnUse"
     x1="9.940678"
     x2="24.805084"
     xlink:href="#a"
     y1="77.542374"
     y2="48.728813" />
  <g
     id="g845">
    <path
       id="rect840"
       style="fill:#7f96ff;fill-opacity:1;stroke:#0049b3;stroke-width:8;stroke-linecap:square;stroke-opacity:1;paint-order:stroke fill markers"
       d="m 42.683902,20.341534 7.266474,29.658467 -21.63348,-21.250407 -7.314943,12.842347 28.948423,8.40806 -28.948423,8.408058 7.314943,12.842348 21.63348,-21.250406 -7.266474,29.658465 H 57.313788 L 49.950376,50.000001 71.680793,71.250407 78.995737,58.408059 49.950376,50.000001 78.995737,41.591941 71.680793,28.749594 49.950376,50.000001 57.313788,20.341534 Z"
       sodipodi:nodetypes="ccccccccccccccccccc" />
  </g>
</svg>

<?xml version="1.0" encoding="UTF-8"?>
<svg width="100" height="100" version="1.1" viewBox="0 0 100 100" xmlns="http://www.w3.org/2000/svg" xmlns:xlink="http://www.w3.org/1999/xlink">
 <path d="m42.684 20.342 7.2665 29.658-21.633-21.25-7.3149 12.842 28.948 8.4081-28.948 8.4081 7.3149 12.842 21.633-21.25-7.2665 29.658h14.63l-7.3634-29.658 21.73 21.25 7.3149-12.842-29.045-8.4081 29.045-8.4081-7.3149-12.842-21.73 21.25 7.3634-29.658z" fill="#7f96ff" stroke="#0049b3" stroke-linecap="square" stroke-width="8" style="paint-order:stroke fill markers"/>
</svg>
